build/images/regions/china.svg

<svg width="30" height="30" viewBox="0 0 30 30" fill="none" xmlns="http://www.w3.org/2000/svg">
<path d="M15 30C23.2843 30 30 23.2843 30 15C30 6.71573 23.2843 0 15 0C6.71573 0 0 6.71573 0 15C0 23.2843 6.71573 30 15 30Z" fill="#D80027"/>
<path d="M8.20898 9.12891L9.50391 13.1133H13.6934L10.3066 15.5801L11.6016 19.5645L8.20898 17.1035L4.81641 19.5645L6.11719 15.5801L2.72461 13.1133H6.91406L8.20898 9.12891Z" fill="#FFDA44"/>
<path d="M17.7829 23.2325L16.7927 22.0138L15.3279 22.5822L16.1775 21.2638L15.1873 20.0392L16.7048 20.4435L17.5603 19.1251L17.6423 20.6954L19.1657 21.0997L17.6951 21.6622L17.7829 23.2325Z" fill="#FFDA44"/>
<path d="M19.7518 19.6582L20.2206 18.1582L18.9374 17.25L20.5077 17.2266L20.9706 15.7266L21.4803 17.2148L23.0507 17.1973L21.7909 18.1348L22.2948 19.623L21.0116 18.7148L19.7518 19.6582Z" fill="#FFDA44"/>
<path d="M22.4064 11.0098L21.715 12.4219L22.84 13.5176L21.2872 13.2949L20.5958 14.7012L20.3263 13.1543L18.7677 12.9316L20.1622 12.1992L19.8927 10.6465L21.0177 11.7422L22.4064 11.0098Z" fill="#FFDA44"/>
<path d="M17.8243 6.73242L17.7072 8.29688L19.1661 8.88867L17.6368 9.26367L17.5255 10.834L16.6993 9.49805L15.17 9.87305L16.1837 8.67188L15.3517 7.3418L16.8107 7.93359L17.8243 6.73242Z" fill="#FFDA44"/>
</svg>

<svg width="30" height="30" fill="none" xmlns="http://www.w3.org/2000/svg"><path d="M15 30c8.284 0 15-6.716 15-15 0-8.284-6.716-15-15-15C6.716 0 0 6.716 0 15c0 8.284 6.716 15 15 15z" fill="#D80027"/><path d="M8.209 9.129l1.295 3.984h4.19l-3.387 2.467 1.295 3.984-3.393-2.46-3.393 2.46 1.301-3.984-3.392-2.467h4.19L8.208 9.13zm9.574 14.104l-.99-1.22-1.465.57.85-1.32-.99-1.224 1.517.404.855-1.318.082 1.57 1.524.405-1.47.562.087 1.57zm1.969-3.575l.469-1.5-1.284-.908 1.57-.023.464-1.5.51 1.488 1.57-.018-1.26.938.504 1.488-1.283-.908-1.26.943zm2.654-8.648l-.691 1.412 1.125 1.096-1.553-.223-.691 1.406-.27-1.547-1.558-.222 1.394-.733-.27-1.553 1.126 1.096 1.388-.732zm-4.582-4.278l-.117 1.565 1.46.592-1.53.375-.111 1.57-.827-1.336-1.529.375 1.014-1.201-.832-1.33 1.459.592 1.013-1.202z" fill="#FFDA44"/></svg>
